X: 35205
T: Rory And Catherine
R: reel
M: 4/4
K: Bminor
|FBBc BAFE|FBBc d2 cB|fBBc BAFA|EAAB c2 BA|
FBBc BAFE|FBBc d2 ff|a3b afed|FBcd B2 B2||
fbbc' bafe|FBBc d2 cB|fbbc' bafe|EAAB c2 BA|
fbbc' bafe|FBBc d2 cB|a3b afed|FBcd B2 B2||
fdcd BFDF|FBBc d2 cB|fdcd BFDF|EAAB c2 BA|
fdcd BFDF|FBBc d2 ff|afef dBAF|FBcd B2 B2||

